X:57
T:The Knight in Jessemont
T:not ugly
Z:Jack Campin - http://www.campin.me.uk
S:Blaikie MS (NLS MS.1578) p19, Blaikie #53
M:2/4
L:1/8
V:1 midi program 1 74
V:2 midi program 1 46 bass middle = d transpose -24
Q:1/4=60
K:A Minor
[V:1] A|cA`cA|ce`ed|c>dec|A3  B|AG`B>A|AG`EE|AA`GB|A3|]
[V:2] z|A2 a2|A2 a2|A2 a2|A2 z2|e2 e2 |e2 e2|a2 e2|A3|]
W:Transcription (c) Jack Campin 2009, no mirroring or republication without permission

